X: 28254
T: Mrs. Jean Campbell BSc
R: waltz
M: 3/4
K: Gmajor
ed|:B2BA Bd|G2GA BG|cB AG DE|~F3d ed|
B2BA Bd|G2GA BG|cB AG DE|1 ~F3F ED:|2 F3f ef||
~g3a bg|gf fg fe|d ~B3AG|(3ABc Be de|
~g3a bg|gf fg fe|gf fg fd|ce ed ef|
f(g g)a bg|gf fg fe|gf fg fd|cf fd ef|
f(g g)a bg|gf fg fe|dB Bc ed|G4 ed||

